X: 21685
T: Kilrack's
R: reel
M: 4/4
K: Amajor
B,|G,2 G>B, G,2 G>B,|A,2 B>A E/E/E E2|A2 e>B c2 B>e|
c<A e>B cA A2:|:c/d/|e>cA>c e>fd>c|d>fe>c B/B/B Bc/d/|
e>cA>c e>fe>c|d>fe>c A/A/A Ad/e/|f>de>c d>Bc>A|
d>fe>c B/B/B B2|D>CB,>A, B,>A,G,>f|e<d c>B cA A||

